designathon/clock/stopwatch.svg

<svg clip-rule="evenodd" fill-rule="evenodd" stroke-linejoin="round" stroke-miterlimit="2" viewBox="0 0 100 100" xmlns="http://www.w3.org/2000/svg"><g fill="#fff"><circle cx="49.834422" cy="54.63312" r="27.415"/><path d="m63.043 17.668c0-2.715-2.201-4.915-4.916-4.915-5.801 0-15.39 0-21.191 0-2.715 0-4.916 2.2-4.916 4.915v.001c0 2.715 2.201 4.916 4.916 4.916h21.191c2.715 0 4.916-2.201 4.916-4.916 0 0 0 0 0-.001z" transform="translate(2.30286 2.22312)"/><path d="m63.043 17.668c0-2.715-2.975-4.916-6.646-4.915-5.234 0-12.497 0-17.731 0-3.67-.001-6.646 2.2-6.646 4.915v.002c0 2.714 2.976 4.915 6.646 4.915h17.731c3.671 0 6.646-2.201 6.646-4.915 0-.001 0-.002 0-.002z" transform="matrix(-.332379 .332379 .449411 .449411 32.5548 8.97142)"/><path d="m63.043 17.668c0-2.715-2.975-4.916-6.646-4.915-5.234 0-12.497 0-17.731 0-3.67-.001-6.646 2.2-6.646 4.915v.002c0 2.714 2.976 4.915 6.646 4.915h17.731c3.671 0 6.646-2.201 6.646-4.915 0-.001 0-.002 0-.002z" transform="matrix(.332379 .332379 -.449411 .449411 67.4452 8.97142)"/></g><path d="m51.506 35.144c.094-.466.504-.801.98-.801.475 0 .885.335.98.801 1.094 5.386 2.868 14.118 4.063 19.998.307 1.513-.081 3.085-1.059 4.281-.977 1.196-2.44 1.89-3.984 1.889 0 0 0 0-.001 0-1.544.001-3.007-.693-3.984-1.889s-1.366-2.768-1.059-4.281c1.195-5.88 2.969-14.612 4.064-19.998z" transform="matrix(.866025 .5 -.5 .866025 33.1619 -18.4689)"/></svg>

<?xml version="1.0" encoding="UTF-8" standalone="no"?>
<!DOCTYPE svg PUBLIC "-//W3C//DTD SVG 1.1//EN" "http://www.w3.org/Graphics/SVG/1.1/DTD/svg11.dtd">
<svg width="100%" height="100%" viewBox="0 0 100 100" version="1.1" xmlns="http://www.w3.org/2000/svg" xmlns:xlink="http://www.w3.org/1999/xlink" xml:space="preserve" xmlns:serif="http://www.serif.com/" style="fill-rule:evenodd;clip-rule:evenodd;stroke-linejoin:round;stroke-miterlimit:2;">
    <g transform="matrix(1,0,0,1,-0.165578,4.63312)">
        <circle cx="50" cy="50" r="27.415" style="fill:white;"/>
    </g>
    <g transform="matrix(1,0,0,1,2.30286,2.22312)">
        <path d="M63.043,17.668C63.043,14.953 60.842,12.753 58.127,12.753C52.326,12.753 42.737,12.753 36.936,12.753C34.221,12.753 32.02,14.953 32.02,17.668C32.02,17.669 32.02,17.669 32.02,17.669C32.02,20.384 34.221,22.585 36.936,22.585C42.737,22.585 52.326,22.585 58.127,22.585C60.842,22.585 63.043,20.384 63.043,17.669C63.043,17.669 63.043,17.669 63.043,17.668Z" style="fill:white;"/>
    </g>
    <g transform="matrix(-0.332379,0.332379,0.449411,0.449411,32.5548,8.97142)">
        <path d="M63.043,17.668C63.043,14.953 60.068,12.752 56.397,12.753C51.163,12.753 43.9,12.753 38.666,12.753C34.996,12.752 32.02,14.953 32.02,17.668C32.02,17.668 32.02,17.669 32.02,17.67C32.02,20.384 34.996,22.585 38.666,22.585C43.9,22.585 51.163,22.585 56.397,22.585C60.068,22.585 63.043,20.384 63.043,17.67C63.043,17.669 63.043,17.668 63.043,17.668Z" style="fill:white;"/>
    </g>
    <g transform="matrix(0.332379,0.332379,-0.449411,0.449411,67.4452,8.97142)">
        <path d="M63.043,17.668C63.043,14.953 60.068,12.752 56.397,12.753C51.163,12.753 43.9,12.753 38.666,12.753C34.996,12.752 32.02,14.953 32.02,17.668C32.02,17.668 32.02,17.669 32.02,17.67C32.02,20.384 34.996,22.585 38.666,22.585C43.9,22.585 51.163,22.585 56.397,22.585C60.068,22.585 63.043,20.384 63.043,17.67C63.043,17.669 63.043,17.668 63.043,17.668Z" style="fill:white;"/>
    </g>
    <g transform="matrix(0.866025,0.5,-0.5,0.866025,33.1619,-18.4689)">
        <path d="M51.506,35.144C51.6,34.678 52.01,34.343 52.486,34.343C52.961,34.343 53.371,34.678 53.466,35.144C54.56,40.53 56.334,49.262 57.529,55.142C57.836,56.655 57.448,58.227 56.47,59.423C55.493,60.619 54.03,61.313 52.486,61.312C52.486,61.312 52.486,61.312 52.485,61.312C50.941,61.313 49.478,60.619 48.501,59.423C47.524,58.227 47.135,56.655 47.442,55.142C48.637,49.262 50.411,40.53 51.506,35.144Z"/>
    </g>
</svg>
